Numix-GalliumOS/48/actions/filter-note-unfiled.svg

<?xml version="1.0" encoding="UTF-8" standalone="no"?>
<svg
   xmlns:dc="http://purl.org/dc/elements/1.1/"
   xmlns:cc="http://creativecommons.org/ns#"
   xmlns:rdf="http://www.w3.org/1999/02/22-rdf-syntax-ns#"
   xmlns:svg="http://www.w3.org/2000/svg"
   xmlns="http://www.w3.org/2000/svg"
   xmlns:sodipodi="http://sodipodi.sourceforge.net/DTD/sodipodi-0.dtd"
   xmlns:inkscape="http://www.inkscape.org/namespaces/inkscape"
   viewBox="0 0 48 48"
   id="svg2"
   version="1.1"
   inkscape:version="0.91 r13725"
   sodipodi:docname="filter-note-unfiled.svg">
  <metadata
     id="metadata98">
    <rdf:RDF>
      <cc:Work
         rdf:about="">
        <dc:format>image/svg+xml</dc:format>
        <dc:type
           rdf:resource="http://purl.org/dc/dcmitype/StillImage" />
        <dc:title></dc:title>
      </cc:Work>
    </rdf:RDF>
  </metadata>
  <sodipodi:namedview
     pagecolor="#ffffff"
     bordercolor="#666666"
     borderopacity="1"
     objecttolerance="10"
     gridtolerance="10"
     guidetolerance="10"
     inkscape:pageopacity="0"
     inkscape:pageshadow="2"
     inkscape:window-width="1366"
     inkscape:window-height="704"
     id="namedview96"
     showgrid="true"
     inkscape:zoom="16"
     inkscape:cx="10.125"
     inkscape:cy="5.091032"
     inkscape:window-x="0"
     inkscape:window-y="27"
     inkscape:window-maximized="1"
     inkscape:current-layer="svg2">
    <inkscape:grid
       type="xygrid"
       id="grid4360" />
  </sodipodi:namedview>
  <defs
     id="defs4">
    <path
       id="SVGCleanerId_0"
       d="m 14 12 l 20 0 c 1.105 0 2 0.895 2 2 l 0 20 c 0 1.105 -0.895 2 -2 2 l -20 0 c -1.105 0 -2 -0.895 -2 -2 l 0 -20 c 0 -1.105 0.895 -2 2 -2 m 0 0" />
  </defs>
  <g
     id="g34" />
  <g
     id="g34-3"
     transform="matrix(2,0,0,2,2e-7,-48)" />
  <rect
     style="opacity:1;fill:#e5e1c7;fill-opacity:1;stroke:none;stroke-width:3;stroke-linecap:round;stroke-linejoin:round;stroke-miterlimit:4;stroke-dasharray:none;stroke-opacity:1"
     id="rect4142"
     width="32"
     height="36"
     x="8"
     y="8"
     rx="4"
     ry="4" />
  <rect
     ry="2"
     rx="2"
     y="10"
     x="10"
     height="32"
     width="28"
     id="rect4182"
     style="opacity:1;fill:#eae7d1;fill-opacity:1;stroke:none;stroke-width:3;stroke-linecap:round;stroke-linejoin:round;stroke-miterlimit:4;stroke-dasharray:none;stroke-opacity:1" />
  <rect
     style="opacity:1;fill:#999999;fill-opacity:1;stroke:none;stroke-width:3;stroke-linecap:round;stroke-linejoin:round;stroke-miterlimit:4;stroke-dasharray:none;stroke-opacity:1"
     id="rect4170"
     width="2"
     height="6"
     x="12"
     y="6"
     rx="1"
     ry="1" />
  <rect
     ry="1"
     rx="1"
     y="6"
     x="16"
     height="6"
     width="2"
     id="rect4172"
     style="opacity:1;fill:#999999;fill-opacity:1;stroke:none;stroke-width:3;stroke-linecap:round;stroke-linejoin:round;stroke-miterlimit:4;stroke-dasharray:none;stroke-opacity:1" />
  <rect
     style="opacity:1;fill:#999999;fill-opacity:1;stroke:none;stroke-width:3;stroke-linecap:round;stroke-linejoin:round;stroke-miterlimit:4;stroke-dasharray:none;stroke-opacity:1"
     id="rect4174"
     width="2"
     height="6"
     x="20"
     y="6"
     rx="1"
     ry="1" />
  <rect
     ry="1"
     rx="1"
     y="6"
     x="26"
     height="6"
     width="2"
     id="rect4176"
     style="opacity:1;fill:#999999;fill-opacity:1;stroke:none;stroke-width:3;stroke-linecap:round;stroke-linejoin:round;stroke-miterlimit:4;stroke-dasharray:none;stroke-opacity:1" />
  <rect
     style="opacity:1;fill:#999999;fill-opacity:1;stroke:none;stroke-width:3;stroke-linecap:round;stroke-linejoin:round;stroke-miterlimit:4;stroke-dasharray:none;stroke-opacity:1"
     id="rect4178"
     width="2"
     height="6"
     x="30"
     y="6"
     rx="1"
     ry="1" />
  <rect
     ry="1"
     rx="1"
     y="6"
     x="34"
     height="6"
     width="2"
     id="rect4180"
     style="opacity:1;fill:#999999;fill-opacity:1;stroke:none;stroke-width:3;stroke-linecap:round;stroke-linejoin:round;stroke-miterlimit:4;stroke-dasharray:none;stroke-opacity:1" />
  <rect
     style="opacity:1;fill:#999999;fill-opacity:1;stroke:none;stroke-width:3;stroke-linecap:round;stroke-linejoin:round;stroke-miterlimit:4;stroke-dasharray:none;stroke-opacity:1"
     id="rect4184"
     width="24"
     height="2"
     x="12"
     y="16" />
  <rect
     y="20"
     x="12"
     height="2"
     width="24"
     id="rect4186"
     style="opacity:1;fill:#999999;fill-opacity:1;stroke:none;stroke-width:3;stroke-linecap:round;stroke-linejoin:round;stroke-miterlimit:4;stroke-dasharray:none;stroke-opacity:1" />
  <rect
     style="opacity:1;fill:#999999;fill-opacity:1;stroke:none;stroke-width:3;stroke-linecap:round;stroke-linejoin:round;stroke-miterlimit:4;stroke-dasharray:none;stroke-opacity:1"
     id="rect4188"
     width="16"
     height="2"
     x="12"
     y="24" />
  <rect
     y="28"
     x="12"
     height="2"
     width="16"
     id="rect4190"
     style="opacity:1;fill:#999999;fill-opacity:1;stroke:none;stroke-width:3;stroke-linecap:round;stroke-linejoin:round;stroke-miterlimit:4;stroke-dasharray:none;stroke-opacity:1" />
  <rect
     style="opacity:1;fill:#999999;fill-opacity:1;stroke:none;stroke-width:3;stroke-linecap:round;stroke-linejoin:round;stroke-miterlimit:4;stroke-dasharray:none;stroke-opacity:1"
     id="rect4192"
     width="24"
     height="2"
     x="12"
     y="32" />
  <rect
     y="36"
     x="12"
     height="2"
     width="24"
     id="rect4194"
     style="opacity:1;fill:#999999;fill-opacity:1;stroke:none;stroke-width:3;stroke-linecap:round;stroke-linejoin:round;stroke-miterlimit:4;stroke-dasharray:none;stroke-opacity:1" />
  <path
     style="fill:#dc322f;fill-opacity:1"
     d="M 45.999416,40.343146 40.342562,34.686292 45.999416,29.029438 40.342562,23.372584 34.685708,29.029438 29.028854,23.372584 23.372,29.029438 29.028854,34.686292 23.372,40.343146 29.028854,46 34.685708,40.343146 40.342562,46 Z"
     id="path6"
     inkscape:connector-curvature="0" />
</svg>

<svg xmlns="http://www.w3.org/2000/svg" viewBox="0 0 48 48">
 <rect width="32" height="36" x="8" y="8" rx="4" style="fill:#e5e1c7;opacity:1;fill-opacity:1;stroke:none"/>
 <rect rx="2" y="10" x="10" height="32" width="28" style="fill:#eae7d1;opacity:1;fill-opacity:1;stroke:none"/>
 <rect width="2" height="6" x="12" y="6" rx="1" style="fill:#999;opacity:1;fill-opacity:1;stroke:none"/>
 <rect rx="1" y="6" x="16" height="6" width="2" style="fill:#999;opacity:1;fill-opacity:1;stroke:none"/>
 <rect width="2" height="6" x="20" y="6" rx="1" style="fill:#999;opacity:1;fill-opacity:1;stroke:none"/>
 <rect rx="1" y="6" x="26" height="6" width="2" style="fill:#999;opacity:1;fill-opacity:1;stroke:none"/>
 <rect width="2" height="6" x="30" y="6" rx="1" style="fill:#999;opacity:1;fill-opacity:1;stroke:none"/>
 <rect rx="1" y="6" x="34" height="6" width="2" style="fill:#999;opacity:1;fill-opacity:1;stroke:none"/>
 <rect width="24" height="2" x="12" y="16" style="fill:#999;opacity:1;fill-opacity:1;stroke:none"/>
 <rect y="20" x="12" height="2" width="24" style="fill:#999;opacity:1;fill-opacity:1;stroke:none"/>
 <rect width="16" height="2" x="12" y="24" style="fill:#999;opacity:1;fill-opacity:1;stroke:none"/>
 <rect y="28" x="12" height="2" width="16" style="fill:#999;opacity:1;fill-opacity:1;stroke:none"/>
 <rect width="24" height="2" x="12" y="32" style="fill:#999;opacity:1;fill-opacity:1;stroke:none"/>
 <rect y="36" x="12" height="2" width="24" style="fill:#999;opacity:1;fill-opacity:1;stroke:none"/>
 <path d="m 45.999 40.34 -5.657 -5.657 5.657 -5.657 -5.657 -5.657 -5.657 5.657 -5.657 -5.657 -5.657 5.657 5.657 5.657 -5.657 5.657 5.657 5.657 5.657 -5.657 5.657 5.657" style="fill:#dc322f;fill-opacity:1"/>
</svg>
